src/assets/outline/Personalcard.svg

<svg width="24" height="24" viewBox="0 0 24 24"  xmlns="http://www.w3.org/2000/svg">
<path d="M17 21.75H7C2.59 21.75 1.25 20.41 1.25 16V8C1.25 3.59 2.59 2.25 7 2.25H17C21.41 2.25 22.75 3.59 22.75 8V16C22.75 20.41 21.41 21.75 17 21.75ZM7 3.75C3.42 3.75 2.75 4.43 2.75 8V16C2.75 19.57 3.42 20.25 7 20.25H17C20.58 20.25 21.25 19.57 21.25 16V8C21.25 4.43 20.58 3.75 17 3.75H7Z" />
<path d="M19 8.75H14C13.59 8.75 13.25 8.41 13.25 8C13.25 7.59 13.59 7.25 14 7.25H19C19.41 7.25 19.75 7.59 19.75 8C19.75 8.41 19.41 8.75 19 8.75Z" />
<path d="M19 12.75H15C14.59 12.75 14.25 12.41 14.25 12C14.25 11.59 14.59 11.25 15 11.25H19C19.41 11.25 19.75 11.59 19.75 12C19.75 12.41 19.41 12.75 19 12.75Z" />
<path d="M19 16.75H17C16.59 16.75 16.25 16.41 16.25 16C16.25 15.59 16.59 15.25 17 15.25H19C19.41 15.25 19.75 15.59 19.75 16C19.75 16.41 19.41 16.75 19 16.75Z" />
<path d="M8.49994 12.0399C7.08994 12.0399 5.93994 10.8899 5.93994 9.47992C5.93994 8.06992 7.08994 6.91992 8.49994 6.91992C9.90994 6.91992 11.0599 8.06992 11.0599 9.47992C11.0599 10.8899 9.90994 12.0399 8.49994 12.0399ZM8.49994 8.41992C7.91994 8.41992 7.43994 8.89992 7.43994 9.47992C7.43994 10.0599 7.91994 10.5399 8.49994 10.5399C9.07994 10.5399 9.55994 10.0599 9.55994 9.47992C9.55994 8.89992 9.07994 8.41992 8.49994 8.41992Z" />
<path d="M11.9999 17.0798C11.6199 17.0798 11.2899 16.7898 11.2499 16.3998C11.1399 15.3198 10.2699 14.4498 9.17991 14.3498C8.71991 14.3098 8.25991 14.3098 7.79991 14.3498C6.70991 14.4498 5.83991 15.3098 5.72991 16.3998C5.68991 16.8098 5.31991 17.1198 4.90991 17.0698C4.49991 17.0298 4.19991 16.6598 4.23991 16.2498C4.41991 14.4498 5.84991 13.0198 7.65991 12.8598C8.20991 12.8098 8.76991 12.8098 9.31991 12.8598C11.1199 13.0298 12.5599 14.4598 12.7399 16.2498C12.7799 16.6598 12.4799 17.0298 12.0699 17.0698C12.0499 17.0798 12.0199 17.0798 11.9999 17.0798Z" />
</svg>

<?xml version="1.0" encoding="UTF-8"?>
<svg width="24" height="24" viewBox="0 0 24 24" xmlns="http://www.w3.org/2000/svg">
 <path d="m17 21.75h-10c-4.41 0-5.75-1.34-5.75-5.75v-8c0-4.41 1.34-5.75 5.75-5.75h10c4.41 0 5.75 1.34 5.75 5.75v8c0 4.41-1.34 5.75-5.75 5.75zm-10-18c-3.58 0-4.25 0.68-4.25 4.25v8c0 3.57 0.67 4.25 4.25 4.25h10c3.58 0 4.25-0.68 4.25-4.25v-8c0-3.57-0.67-4.25-4.25-4.25h-10z"/>
 <path d="m19 8.75h-5c-0.41 0-0.75-0.34-0.75-0.75s0.34-0.75 0.75-0.75h5c0.41 0 0.75 0.34 0.75 0.75s-0.34 0.75-0.75 0.75z"/>
 <path d="m19 12.75h-4c-0.41 0-0.75-0.34-0.75-0.75s0.34-0.75 0.75-0.75h4c0.41 0 0.75 0.34 0.75 0.75s-0.34 0.75-0.75 0.75z"/>
 <path d="m19 16.75h-2c-0.41 0-0.75-0.34-0.75-0.75s0.34-0.75 0.75-0.75h2c0.41 0 0.75 0.34 0.75 0.75s-0.34 0.75-0.75 0.75z"/>
 <path d="m8.4999 12.04c-1.41 0-2.56-1.15-2.56-2.56 0-1.41 1.15-2.56 2.56-2.56s2.56 1.15 2.56 2.56c0 1.41-1.15 2.56-2.56 2.56zm0-3.62c-0.58 0-1.06 0.48-1.06 1.06 0 0.57998 0.48 1.06 1.06 1.06s1.06-0.48 1.06-1.06c0-0.58-0.48-1.06-1.06-1.06z"/>
 <path d="m12 17.08c-0.38 0-0.71-0.29-0.75-0.68-0.11-1.08-0.98-1.95-2.07-2.05-0.46-0.04-0.92-0.04-1.38 0-1.09 0.1-1.96 0.96-2.07 2.05-0.04 0.41-0.41 0.72-0.82 0.67-0.41-0.04-0.71-0.41-0.67-0.82 0.18-1.8 1.61-3.23 3.42-3.39 0.55-0.05 1.11-0.05 1.66 0 1.8 0.17 3.24 1.6 3.42 3.39 0.04 0.41-0.26 0.78-0.67 0.82-0.02 0.01-0.05 0.01-0.07 0.01z"/>
</svg>
